X: 8
T:High Caul Cap
% Nottingham Music Database
S:via PR
M:4/4
L:1/4
K:D
"D"dA FA|"Bm"d3/2d/2 df|"Em"ed cd|"A7"e/2d/2e/2f/2 gf/2g/2|
"D"af "A"ge|"Bm"dc "F#m"AF|"G"GB "A7"A/2B/2A/2G/2|"D"FD Dz::
"D"f3/2f/2 ff|"G"zg g2|"D"f3/2f/2 "Bm"fa|"Em"gf "A7"ef/2g/2|"D"af "A"ge|\
"Bm"dc "F#m"AF|"G"GB "A7"A/2B/2A/2G/2|"D"FD Dz:|<end>
<start>
